svg/white/mln.svg

<svg xmlns="http://www.w3.org/2000/svg" width="32" height="32" viewBox="0 0 32 32">
  <path fill="#FFF" fill-rule="evenodd" d="M8.62721993,20.123718 L9.98742791,19.3384015 L9.80901381,19.0293792 L8.46696035,19.8042142 L8.46696035,11.9525483 L15.2863436,15.9947276 L15.2863436,25.7768014 L15.2863436,27.5553603 L16,28 L16.7136564,27.5553603 L16.7136564,25.7768014 L16.7136564,15.9947276 L23.5330396,11.9525483 L23.5330396,19.8046113 L22.1902983,19.0293792 L22.0118842,19.3384015 L23.3724388,20.1239181 L18.1013216,23.2155339 L18.1013216,24.9446823 L25,20.8857645 L25,10.2952548 L16,5 L7,10.2952548 L7,20.8857645 L13.8986784,24.9446823 L13.8986784,23.2155339 L8.62721993,20.123718 Z M15.8017621,6.81404545 L15.8017621,8.39543058 L16.1585903,8.39543058 L16.1585903,6.79077942 L22.8193833,10.6994728 L16,14.741652 L9.18061674,10.6994728 L15.8017621,6.81404545 Z M16,32 C7.163444,32 0,24.836556 0,16 C0,7.163444 7.163444,0 16,0 C24.836556,0 32,7.163444 32,16 C32,24.836556 24.836556,32 16,32 Z M15.8017621,9.4059754 L15.8017621,11.0632689 L16.1585903,11.0632689 L16.1585903,9.4059754 L15.8017621,9.4059754 Z M15.8017621,12.0738137 L15.8017621,13.7311072 L15.9801762,13.8119508 L16.1585903,13.7311072 L16.1585903,12.0738137 L15.8017621,12.0738137 Z M21.3620751,18.5241068 L19.9268168,17.6954601 L19.7484027,18.0044824 L21.183661,18.8331291 L21.3620751,18.5241068 Z M19.0965822,17.1901877 L17.6613239,16.3615409 L17.5021043,16.4756303 L17.4829098,16.6705632 L18.9181681,17.49921 L19.0965822,17.1901877 Z M10.637237,18.5241068 L10.8156511,18.8331291 L12.2509093,18.0044824 L12.0724952,17.6954601 L10.637237,18.5241068 Z M12.9027299,17.1901877 L13.081144,17.49921 L14.5164022,16.6705632 L14.4972078,16.4756303 L14.3379881,16.3615409 L12.9027299,17.1901877 Z"/>
</svg>

<svg xmlns="http://www.w3.org/2000/svg" width="32" height="32"><path fill="#FFF" fill-rule="evenodd" d="M8.627 20.124l1.36-.786-.178-.309-1.342.775v-7.851l6.82 4.042v11.56L16 28l.714-.445v-11.56l6.819-4.042v7.852l-1.343-.776-.178.31 1.36.785-5.27 3.092v1.729L25 20.885v-10.59L16 5l-9 5.295v10.59l6.899 4.06v-1.73l-5.272-3.091zm7.175-13.31v1.581h.357V6.791l6.66 3.908L16 14.742l-6.82-4.043 6.622-3.885zM16 32C7.163 32 0 24.837 0 16S7.163 0 16 0s16 7.163 16 16-7.163 16-16 16zm-.198-22.594v1.657h.357V9.406h-.357zm0 2.668v1.657l.178.081.179-.08v-1.658h-.357zm5.56 6.45l-1.435-.829-.179.31 1.436.828.178-.309zm-2.265-1.334l-1.436-.828-.159.114-.02.195 1.436.828.179-.309zm-8.46 1.334l.179.31 1.435-.83-.179-.309-1.435.83zm2.266-1.334l.178.31 1.435-.83-.019-.194-.159-.114-1.435.828z"/></svg>
